X: 39009
T: Swallowtail, The
R: jig
M: 6/8
K: Dmajor
|:F|GEE BEE|GEE BAG|FEE AEE|dcd AGF|
GEE BEE|GEE B2c|dcd AGF|GEE 2E:|
E|Bcd e2f|e2f edB|Bcd e2f|edB 3d|
Bcd e2f|e2f edB|bcb AGF|GEE 2E:|

